!!!OTL: 203b. Zwei Roeselein.
!!!ODT: 1838
!!!ARE: Europa, Mitteleuropa, Deutschland, Dreieichenhain
!!!SCT: E0203A
!!!TXL: @@DE
!!!YEM: Copyright 1995, estate of Helmut Schaffrath.
**kern	**text
*ICvox	*
*M3/4	*
*k[f#]	*
*G:	*
!LO:TX:a:t=Sehr mäßig.	!
!LO:TX:a:t=Aus Dreieichenhain. 1838.	!
{4d	Jetʒt
=1	=1
4.g	geh
8a	ich
8bL	ans
8ccJ	.
=2	=2
4.dd	Brün-
8ee	-ne-
4dd}	-lein,
=3	=3
{8ddL	trink
8ccJ	.
8ccL	a-
8eeJ	.
8ddL	-ber
8ccJ	.
=4	=4
2b}	nicht.
{4d	Jetʒt
=5	=5
4.g	geh
8a	ich
8bL	ans
8ccJ	.
=6	=6
4.dd	Brün-
8ee	-ne-
4dd}	-lein,
=7	=7
{8ddL	trink
8ccJ	.
8ccL	a-
8eeJ	.
8ddL	-ber
8ccJ	.
=8	=8
2b}	nicht.
{(8bL	Da
8ddJ)	.
=9	=9
(8dd	ſuch
8cc)	ich
4cc	mein
4ee	herʒ-
=10	=10
4dd	-tau-
4b	-ſende
4b}	Schatʒ,
=11	=11
{8dd	ſind
8cc	ihn
4a	a-
4dd	-ber
=12	=12
2b}	nicht.
{(8bL	Da
8ddJ)	.
=13	=13
(8dd	ſuch
8cc)	ich
4cc	mein
4ee	herʒ-
=14	=14
4dd	-tau-
4b	-ſende
4b}	Schatʒ,
=15	=15
{8dd	ſind
8cc	ihn
4a	a-
4dd	-ber
=16	=16
2b}	nicht.
==	==
!!!AGN: erzaehlendes Volks - Lied, Todes - Ahnung; betrogene Liebe
!!!ONB: ESAC (Essen Associative Code) Database: ERK1
!!!AMT: simple triple
!!!AIN: vox
!!!EED: Helmut Schaffrath
!!!EEV: 1.0
!!!GTL: Todtensagen (Todesahnung, Geisterliebe, Grabesstimmen)
!!!URL-scan: https://rosdok.uni-rostock.de/mcrviewer/recordIdentifier/rosdok_ppn745146120/iview2/phys_0675.iview2?x=-128.7727644188933&y=1353.986412954051&scale=0.5870222003877484&rotation=0&layout=singlePageLayout
!!!ENC: Anna Maria Matuszewska
!!!EEV: 2024/06/12
*-	*-
